X: 1
T: Flowers of Edinburgh
O: Trad
R: reel
M: 4/4
L: 1/8
K: G
 GE |: "G"D2DE G2GA | (BA)Bd (cB)AG | "D"FGFE D2(FG) | "Am"AFBF E2GE | 
"G"D2DE G2GA |BABd "C"efge | "D7"dcBA GFGA |1"G"B2GF G2GE :|2"G"B2GF G2ef||
|:"G"g2g2 gbag | "D"fefe fagf | "C"edef gfed | "Em"B2e2 e2(ge) | 
"G"dBGB d2d2 | "C"edef g2fe | "D7"dcBA GFGA |1"G"B2GF G2ef:|2"G"B2G2G2|]
